public/category-4.svg.svg

<svg width="31" height="31" viewBox="0 0 31 31" fill="none" xmlns="http://www.w3.org/2000/svg">
<g clip-path="url(#clip0_6511_568)">
<g clip-path="url(#clip1_6511_568)">
<g clip-path="url(#clip2_6511_568)">
<path d="M11.3125 20.0815C15.2475 20.0815 18.4375 17.0595 18.4375 13.3315C18.4375 9.60362 15.2475 6.58154 11.3125 6.58154C7.37747 6.58154 4.1875 9.60362 4.1875 13.3315C4.1875 17.0595 7.37747 20.0815 11.3125 20.0815Z" fill="#FDC040"/>
<path d="M11.3974 20.6408C15.6821 20.6408 19.1679 17.4164 19.1679 13.453C19.1679 9.48957 15.682 6.26514 11.3974 6.26514C7.11276 6.26514 3.62695 9.48957 3.62695 13.453C3.62695 17.4164 7.11276 20.6408 11.3974 20.6408ZM11.3974 7.14489C15.197 7.14489 18.2881 9.97467 18.2881 13.453C18.2881 16.9313 15.1969 19.7611 11.3974 19.7611C7.59786 19.7611 4.5067 16.9313 4.5067 13.453C4.5067 9.97467 7.59786 7.14489 11.3974 7.14489Z" fill="#3BB77E"/>
<path d="M13.7773 12.3376C13.7773 13.0522 14.3587 13.6336 15.0733 13.6336C15.7878 13.6336 16.3692 13.0522 16.3692 12.3376C16.3692 11.6231 15.7878 11.0417 15.0733 11.0417C14.3587 11.0417 13.7773 11.6231 13.7773 12.3376ZM15.0732 11.9215C15.3027 11.9215 15.4893 12.1082 15.4893 12.3376C15.4893 12.5671 15.3027 12.7538 15.0732 12.7538C14.8437 12.7538 14.657 12.5671 14.657 12.3376C14.657 12.1082 14.8438 11.9215 15.0732 11.9215Z" fill="#3BB77E"/>
<path d="M12.9737 11.4873C13.6882 11.4873 14.2695 10.906 14.2695 10.1914C14.2695 9.47687 13.6882 8.89551 12.9737 8.89551C12.2591 8.89551 11.6777 9.47687 11.6777 10.1914C11.6777 10.906 12.2591 11.4873 12.9737 11.4873ZM12.9737 9.77522C13.2031 9.77522 13.3898 9.96193 13.3898 10.1914C13.3898 10.4208 13.2031 10.6075 12.9737 10.6075C12.7442 10.6075 12.5575 10.4208 12.5575 10.1914C12.5575 9.96193 12.7442 9.77522 12.9737 9.77522Z" fill="#3BB77E"/>
<path d="M7.72167 13.6336C8.43627 13.6336 9.01763 13.0522 9.01763 12.3376C9.01763 11.6231 8.43627 11.0417 7.72167 11.0417C7.00714 11.0417 6.42578 11.6231 6.42578 12.3376C6.42578 13.0522 7.00714 13.6336 7.72167 13.6336ZM7.72167 11.9215C7.95117 11.9215 8.13788 12.1082 8.13788 12.3376C8.13788 12.5671 7.95117 12.7538 7.72167 12.7538C7.49224 12.7538 7.30557 12.5671 7.30557 12.3376C7.30557 12.1082 7.49224 11.9215 7.72167 11.9215Z" fill="#3BB77E"/>
<path d="M9.81936 11.4873C10.5339 11.4873 11.1153 10.906 11.1153 10.1914C11.1153 9.47687 10.5339 8.89551 9.81936 8.89551C9.1048 8.89551 8.52344 9.47687 8.52344 10.1914C8.52344 10.906 9.1048 11.4873 9.81936 11.4873ZM9.81936 9.77522C10.0488 9.77522 10.2355 9.96193 10.2355 10.1914C10.2355 10.4208 10.0488 10.6075 9.81936 10.6075C9.5899 10.6075 9.40322 10.4208 9.40322 10.1914C9.40322 9.96193 9.5899 9.77522 9.81936 9.77522Z" fill="#3BB77E"/>
<path d="M9.17468 13.2449C9.11355 13.5324 8.9502 13.7954 8.70229 14.0055C8.14545 14.4771 7.85445 15.1662 7.90384 15.8958C7.98079 17.0324 8.89673 17.9398 10.0344 18.0063C10.4096 18.0282 10.7862 17.9572 11.1238 17.8008C11.2943 17.7218 11.498 17.7218 11.6686 17.8008C11.9662 17.9387 12.2941 18.0102 12.6245 18.0102C12.669 18.0102 12.7136 18.0089 12.758 18.0063C13.8957 17.9397 14.8116 17.0324 14.8885 15.8958C14.9379 15.1661 14.6469 14.4771 14.0901 14.0055C13.8422 13.7954 13.6788 13.5324 13.6178 13.2449C13.5117 12.7458 13.2472 12.307 12.8529 11.976C12.0224 11.2788 10.7699 11.2788 9.93942 11.976C9.54518 12.307 9.28077 12.7458 9.17468 13.2449ZM10.5051 12.6498C11.0131 12.2233 11.7792 12.2233 12.2872 12.6498C12.5298 12.8534 12.6923 13.1224 12.7571 13.4277C12.8591 13.9076 13.1234 14.3395 13.5214 14.6767C13.8627 14.9658 14.041 15.3885 14.0107 15.8364C13.9636 16.532 13.403 17.0873 12.7065 17.128C12.4727 17.1417 12.2477 17.0995 12.0383 17.0025C11.8343 16.908 11.6152 16.8607 11.3961 16.8607C11.1771 16.8607 10.958 16.908 10.7539 17.0025C10.5446 17.0995 10.3197 17.1418 10.0858 17.128C9.38933 17.0873 8.8287 16.532 8.7816 15.8364C8.75127 15.3885 8.92965 14.9658 9.27094 14.6767C9.66893 14.3396 9.93323 13.9077 10.0352 13.4277C10.1001 13.1224 10.2626 12.8534 10.5051 12.6498Z" fill="#3BB77E"/>
<path d="M28.7053 23.7569C29.6396 22.5649 30.1537 21.0821 30.1537 19.5625C30.1537 15.8082 27.0993 12.7537 23.3449 12.7537C22.643 12.7537 21.9573 12.8592 21.2985 13.0671C21.2511 10.8922 21.1384 8.72032 20.9595 6.56002C20.8956 5.79266 21.063 5.04401 21.4438 4.39499C21.9613 3.51235 22.4247 2.30666 21.6932 1.57511C21.3796 1.26179 20.5758 0.8076 17.2297 0.482085C15.141 0.278918 12.8474 0.206543 11.3975 0.206543C9.94749 0.206543 7.65395 0.278918 5.5652 0.482144C2.21904 0.807657 1.41529 1.26185 1.10162 1.57528C0.370186 2.30666 0.833587 3.51235 1.35112 4.39518C1.73183 5.04408 1.89928 5.79269 1.83529 6.55991C1.81048 6.85657 1.7859 7.17239 1.7581 7.55399C1.74039 7.79628 1.9225 8.00707 2.16479 8.02473C2.40714 8.04251 2.61787 7.86033 2.63552 7.61804C2.66315 7.23967 2.68743 6.92673 2.712 6.63318C2.79112 5.68409 2.58291 4.75623 2.11001 3.95006C2.08596 3.90901 2.06344 3.86883 2.04103 3.82871C3.37276 3.26795 7.72175 2.90226 11.3975 2.90226C12.7966 2.90226 15.0167 2.97123 17.0517 3.16472C19.2991 3.37845 20.3044 3.64408 20.7526 3.83094C20.7306 3.8703 20.7085 3.90971 20.6849 3.95C20.212 4.75623 20.0037 5.68402 20.0827 6.63292C20.5388 12.1425 20.5628 17.7285 20.1567 23.2436C19.2129 23.2434 18.2689 23.2508 17.3299 23.2662C17.2094 21.7698 15.9531 20.589 14.4262 20.589C12.8198 20.589 11.5129 21.8959 11.5129 23.5022C11.5129 24.204 11.7642 24.8732 12.2144 25.3978C12.1018 25.529 12.0016 25.6692 11.9148 25.8168C9.28355 25.8361 6.61805 25.7077 3.98819 25.4336C3.30063 25.3623 2.76074 24.8086 2.70444 24.1167C2.30338 19.2225 2.24186 14.2576 2.52156 9.36011C2.5354 9.11756 2.35001 8.90969 2.10749 8.89582C1.86502 8.88209 1.65711 9.06738 1.6432 9.30989C1.36115 14.248 1.42321 19.2538 1.82755 24.1882C1.9181 25.3019 2.78866 26.1936 3.89722 26.3085C6.38521 26.5678 8.9045 26.6989 11.3984 26.6988C11.4573 26.6988 11.516 26.698 11.5748 26.6978C11.5344 26.8919 11.5129 27.0911 11.5129 27.2933C11.5129 28.8996 12.8197 30.2065 14.4261 30.2065C15.953 30.2065 17.2093 29.0258 17.3298 27.5293C19.18 27.5597 21.0492 27.5597 22.8989 27.5293C23.0194 29.0257 24.2758 30.2065 25.8027 30.2065C26.2714 30.2065 26.7379 30.0923 27.1517 29.8762C27.3671 29.7637 27.4505 29.498 27.338 29.2826C27.2255 29.0673 26.9597 28.9838 26.7445 29.0964C26.4518 29.2492 26.1349 29.3267 25.8027 29.3267C24.6814 29.3267 23.7692 28.4145 23.7692 27.2933C23.7692 27.2424 23.7719 27.1869 23.7777 27.1186C23.7882 26.9945 23.7455 26.8718 23.6604 26.7808C23.5752 26.6899 23.4556 26.6394 23.3309 26.6418C21.1969 26.6826 19.0324 26.6826 16.8979 26.6418C16.774 26.6394 16.6537 26.6899 16.5684 26.7808C16.4833 26.8718 16.4406 26.9945 16.4511 27.1186C16.4569 27.1864 16.4596 27.242 16.4596 27.2933C16.4596 28.4145 15.5474 29.3267 14.4262 29.3267C13.3049 29.3267 12.3927 28.4145 12.3927 27.2933C12.3927 26.6911 12.658 26.123 13.1207 25.7346C13.2203 25.651 13.2778 25.5277 13.2778 25.3977C13.2778 25.2677 13.2203 25.1444 13.1207 25.0608C12.658 24.6724 12.3927 24.1043 12.3927 23.5021C12.3927 22.3809 13.3049 21.4687 14.4262 21.4687C15.5474 21.4687 16.4596 22.3809 16.4596 23.5021C16.4596 23.5534 16.4569 23.6089 16.4511 23.6767C16.4406 23.8009 16.4833 23.9236 16.5684 24.0145C16.6537 24.1054 16.7738 24.1563 16.8979 24.1536C19.0324 24.1129 21.1968 24.1129 23.3309 24.1536C23.4557 24.1563 23.5752 24.1054 23.6604 24.0145C23.7455 23.9236 23.7882 23.8009 23.7777 23.6767C23.7719 23.6085 23.7692 23.553 23.7692 23.5021C23.7692 22.3809 24.6814 21.4687 25.8027 21.4687C26.9242 21.4687 27.8367 22.3809 27.8367 23.5021C27.8367 24.1044 27.5713 24.6725 27.1082 25.0606C27.0086 25.1442 26.951 25.2676 26.951 25.3977C26.951 25.5278 27.0085 25.6512 27.1082 25.7347C27.5713 26.1229 27.8367 26.691 27.8367 27.2933C27.8367 27.5501 27.7895 27.8002 27.6965 28.0367C27.6076 28.2628 27.7188 28.5181 27.9449 28.6071C28.1709 28.696 28.4263 28.5848 28.5152 28.3587C28.6487 28.0193 28.7165 27.6609 28.7165 27.2934C28.7165 26.5914 28.4651 25.9222 28.0147 25.3977C28.4103 24.9372 28.6522 24.3649 28.7053 23.7569ZM11.3976 2.02244C11.318 2.02244 4.05775 2.03511 1.68555 3.03282C1.56438 2.64209 1.57306 2.34807 1.72368 2.19745C1.84268 2.07851 2.47758 1.66643 5.6504 1.35774C7.70784 1.15763 9.96819 1.08631 11.3975 1.08631C12.8267 1.08631 15.0871 1.15763 17.1445 1.35774C20.3173 1.66643 20.9522 2.07851 21.0711 2.19734C21.2219 2.34807 21.2306 2.64203 21.1094 3.03276C18.7372 2.03516 11.4772 2.02244 11.3976 2.02244ZM25.8028 20.589C24.2759 20.589 23.0195 21.7696 22.899 23.2661C22.2806 23.256 21.6599 23.2505 21.0386 23.2471C21.263 20.1748 21.3557 17.081 21.3148 13.9903C21.9632 13.7535 22.6447 13.6335 23.3449 13.6335C26.6142 13.6335 29.2739 16.2933 29.2739 19.5625C29.2739 20.5782 29.0104 21.5752 28.5203 22.453C28.0982 21.3637 27.0396 20.589 25.8028 20.589Z" fill="#3BB77E"/>
</g>
</g>
</g>
<defs>
<clipPath id="clip0_6511_568">
<rect width="30" height="30" fill="white" transform="translate(0.4375 0.206543)"/>
</clipPath>
<clipPath id="clip1_6511_568">
<rect width="30" height="30" fill="white" transform="translate(0.4375 0.206543)"/>
</clipPath>
<clipPath id="clip2_6511_568">
<rect width="30" height="30" fill="white" transform="translate(0.4375 0.206543)"/>
</clipPath>
</defs>
</svg>

<svg xmlns="http://www.w3.org/2000/svg" width="31" height="31" fill="none"><g clip-path="url(#a)"><g clip-path="url(#b)"><g clip-path="url(#c)"><path fill="#FDC040" d="M11.313 20.082c3.935 0 7.124-3.023 7.124-6.75 0-3.728-3.19-6.75-7.125-6.75s-7.124 3.022-7.124 6.75c0 3.727 3.19 6.75 7.125 6.75"/><path fill="#3BB77E" d="M11.397 20.64c4.285 0 7.77-3.224 7.77-7.187s-3.485-7.188-7.77-7.188c-4.284 0-7.77 3.225-7.77 7.188s3.486 7.188 7.77 7.188m0-13.495c3.8 0 6.891 2.83 6.891 6.308s-3.091 6.308-6.89 6.308c-3.8 0-6.891-2.83-6.891-6.308s3.09-6.308 6.89-6.308"/><path fill="#3BB77E" d="M13.777 12.338c0 .714.582 1.296 1.296 1.296s1.296-.582 1.296-1.296-.581-1.296-1.296-1.296c-.714 0-1.296.581-1.296 1.296m1.296-.416a.417.417 0 1 1 0 .833.417.417 0 0 1 0-.834M12.974 11.487c.714 0 1.296-.581 1.296-1.296 0-.714-.582-1.295-1.296-1.295s-1.296.58-1.296 1.295.581 1.296 1.296 1.296m0-1.712a.417.417 0 1 1-.001.834.417.417 0 0 1 0-.834M7.722 13.634c.714 0 1.296-.582 1.296-1.296s-.582-1.296-1.296-1.296-1.296.581-1.296 1.296c0 .714.581 1.296 1.296 1.296m0-1.713a.417.417 0 1 1-.001.834.417.417 0 0 1 0-.834M9.82 11.487c.714 0 1.295-.581 1.295-1.296 0-.714-.581-1.295-1.296-1.295-.714 0-1.296.58-1.296 1.295s.582 1.296 1.296 1.296m0-1.712a.417.417 0 1 1-.002.834.417.417 0 0 1 .001-.834M9.175 13.245c-.061.287-.225.55-.473.76a2.272 2.272 0 0 0 2.422 3.795.66.66 0 0 1 .545 0 2.3 2.3 0 0 0 1.089.206 2.272 2.272 0 0 0 1.332-4 1.38 1.38 0 0 1-.472-.761c-.106-.5-.37-.938-.765-1.269a2.29 2.29 0 0 0-2.914 0c-.394.331-.658.77-.764 1.269m1.33-.595a1.4 1.4 0 0 1 1.782 0c.243.203.405.472.47.778.102.48.366.911.764 1.249a1.39 1.39 0 0 1-1.483 2.326 1.53 1.53 0 0 0-1.284 0 1.39 1.39 0 0 1-1.483-2.326c.398-.337.662-.77.764-1.25.065-.305.228-.574.47-.777"/><path fill="#3BB77E" d="M28.705 23.757a6.8 6.8 0 0 0 1.449-4.195 6.817 6.817 0 0 0-8.855-6.495c-.048-2.175-.16-4.347-.34-6.507a3.65 3.65 0 0 1 .485-2.165c.517-.883.98-2.088.25-2.82-.314-.313-1.118-.767-4.464-1.093a65 65 0 0 0-5.832-.275c-1.45 0-3.744.072-5.833.275-3.346.326-4.15.78-4.463 1.093-.732.732-.268 1.937.25 2.82.38.65.547 1.398.483 2.165-.025.297-.05.612-.077.994a.44.44 0 1 0 .878.064c.027-.378.051-.691.076-.985A4.53 4.53 0 0 0 2.11 3.95l-.069-.121c1.332-.561 5.68-.927 9.357-.927 1.399 0 3.619.07 5.654.263 2.247.213 3.252.48 3.7.666q-.031.06-.067.119a4.53 4.53 0 0 0-.602 2.683c.456 5.51.48 11.096.074 16.61q-1.417 0-2.827.023a2.917 2.917 0 0 0-2.904-2.677 2.917 2.917 0 0 0-2.913 2.913c0 .702.251 1.371.701 1.896a3 3 0 0 0-.3.419c-2.63.02-5.296-.11-7.926-.383a1.44 1.44 0 0 1-1.284-1.317A107 107 0 0 1 2.522 9.36a.44.44 0 0 0-.879-.05c-.282 4.938-.22 9.944.185 14.878a2.32 2.32 0 0 0 2.07 2.12c2.487.26 5.007.39 7.5.39h.177a2.916 2.916 0 0 0 2.851 3.509 2.917 2.917 0 0 0 2.904-2.678c1.85.03 3.72.03 5.569 0a2.917 2.917 0 0 0 4.253 2.347.44.44 0 1 0-.408-.78 2.036 2.036 0 0 1-2.967-1.978.44.44 0 0 0-.446-.476c-2.134.04-4.299.04-6.433 0a.44.44 0 0 0-.447.477q.009.099.009.174a2.036 2.036 0 0 1-2.034 2.034 2.036 2.036 0 0 1-2.033-2.034c0-.602.265-1.17.728-1.558a.44.44 0 0 0 0-.674 2.03 2.03 0 0 1-.728-1.559c0-1.121.912-2.033 2.033-2.033a2.036 2.036 0 0 1 2.025 2.208.44.44 0 0 0 .447.477c2.134-.041 4.299-.041 6.433 0a.44.44 0 0 0 .447-.477 2.036 2.036 0 0 1 2.025-2.208c1.121 0 2.034.912 2.034 2.033a2.03 2.03 0 0 1-.729 1.559.44.44 0 0 0 0 .674 2.03 2.03 0 0 1 .588 2.302.44.44 0 0 0 .82.322q.2-.512.2-1.066c0-.702-.25-1.37-.701-1.895.395-.46.637-1.033.69-1.641M11.398 2.022c-.08 0-7.34.013-9.712 1.01-.122-.39-.113-.684.038-.835.119-.118.754-.53 3.926-.84 2.058-.2 4.318-.27 5.748-.27 1.429 0 3.69.07 5.747.27 3.172.31 3.807.722 3.926.84.15.151.16.445.038.836-2.372-.998-9.632-1.01-9.711-1.01M25.803 20.59a2.917 2.917 0 0 0-2.904 2.677q-.928-.014-1.86-.019c.224-3.072.317-6.166.276-9.257a5.936 5.936 0 0 1 7.96 5.572 5.94 5.94 0 0 1-.755 2.891 2.92 2.92 0 0 0-2.717-1.864"/></g></g></g><defs><clipPath id="a"><path fill="#fff" d="M.438.207h30v30h-30z"/></clipPath><clipPath id="b"><path fill="#fff" d="M.438.207h30v30h-30z"/></clipPath><clipPath id="c"><path fill="#fff" d="M.438.207h30v30h-30z"/></clipPath></defs></svg>
